X:1
T:Blueberry Pie!
C:T. S. Macdonald
M:C|
L:1/8
K:D
g | fd d/d/d AFDF | G=cG=F E(=CC)g | fd d/d/d AFDF | GBde f(dd)g |
    fd d/d/d AFDF | G=cG=F E(=CC)E | FDGE AFGB | Aceg f(dd) ||
e | fdad ec c/c/c | dBfB cA A/A/A | BGdB Acdf | geag f(dd)e |
    fdad ec c/c/c | dBfB cA A/A/A | FDGE AFGB | Aceg fdd |]

